img/sms.svg

<svg width="40" height="40" viewBox="0 0 40 40" fill="none" xmlns="http://www.w3.org/2000/svg">
<path d="M28.334 5.8335H11.6673C6.66732 5.8335 3.33398 8.3335 3.33398 14.1668V25.8335C3.33398 31.6668 6.66732 34.1668 11.6673 34.1668H28.334C33.334 34.1668 36.6673 31.6668 36.6673 25.8335V14.1668C36.6673 8.3335 33.334 5.8335 28.334 5.8335ZM29.1173 15.9835L23.9007 20.1502C22.8007 21.0335 21.4007 21.4668 20.0007 21.4668C18.6007 21.4668 17.184 21.0335 16.1007 20.1502L10.884 15.9835C10.3507 15.5502 10.2673 14.7502 10.684 14.2168C11.1173 13.6835 11.9007 13.5835 12.434 14.0168L17.6507 18.1835C18.9173 19.2002 21.0673 19.2002 22.334 18.1835L27.5507 14.0168C28.084 13.5835 28.884 13.6668 29.3006 14.2168C29.734 14.7502 29.6507 15.5502 29.1173 15.9835Z" fill="white"/>
</svg>

<svg xmlns="http://www.w3.org/2000/svg" width="40" height="40" fill="none"><path fill="#fff" d="M28.334 5.834H11.667c-5 0-8.333 2.5-8.333 8.333v11.667c0 5.833 3.333 8.333 8.333 8.333h16.667c5 0 8.333-2.5 8.333-8.333V14.167c0-5.833-3.333-8.333-8.333-8.333m.783 10.15-5.216 4.166c-1.1.884-2.5 1.317-3.9 1.317s-2.817-.433-3.9-1.317l-5.217-4.166a1.28 1.28 0 0 1-.2-1.767c.433-.534 1.217-.633 1.75-.2l5.217 4.166c1.266 1.017 3.416 1.017 4.683 0l5.217-4.166a1.23 1.23 0 0 1 1.75.2c.433.533.35 1.333-.184 1.766"/></svg>
